X:1
T:Day by Day
T:Text: Carolina Sandell Berg (1832-1903); tr. Andrew L. Skoog (1856-1934) Tune: Oscar Ahnfelt (1813-1882)
T:10 9 10 9D BLOTT EN DAG www.hymnary.org/text/day_by_day_and_with_each_passing_moment
T:Day by Day
T:This hymn is in the public domain.  You may freely use this score for personal and congregational worship.  If you reproduce the score, please credit Hymnary.org as the source. 
T:This hymn is in the public domain.  You may freely use this score for personal and congregational worship.  If you reproduce the score, please credit Hymnary.org as the source. 
T:This hymn is in the public domain.  You may freely use this score for personal and congregational worship.  If you reproduce the score, please credit Hymnary.org as the source. 
Z:This hymn is in the public domain.  You may freely use this score for personal and congregational worship.  If you reproduce the score, please credit Hymnary.org as the source.
%%score ( 1 2 ) ( 3 4 )
L:1/8
M:4/4
K:Eb
V:1 treble nm="Piano" snm="Pno."
V:2 treble 
V:3 bass nm="Piano" snm="Pno."
V:4 bass 
V:1
 [B,G][B,F] | [B,E]3 [B,E] [B,E][B,E][B,F][B,G] | [CG]2 [CF]4 [CF][CE] | [B,D]3 [B,D] | %4
w: 3~Help me|then in ev- ery tri- bu-|la- tion so to|trust your|
w: 1~Day by|day and with each pas- sing|mo- ment, strength I|find to|
w: 2~Ev- ery|day the Lord him- self is|near me with a|spe- cial|
 [B,D][B,E][B,F][B,D] | [B,E]6 [B,G][B,F] | [B,E]3 [B,E] [B,E][B,E][B,F][B,G] | [CG]2 [CF]4 | %8
w: pro- mi- ses, O|Lord, that I|lose not faith’s sweet con- so-|la- tion|
w: meet my tri- als|here; trus- ting|in my Fa- ther’s wise bes-|tow- ment,|
w: mer- cy for each|hour; all my|cares he fain would bear, and|cheer me,|
 [CF][CE] | [B,D]3 [B,D] [B,D][B,E][B,F][B,D] | [B,E]6 [EG]>[EA] | [EB]3 [EB] [EB][EB][Ee][Ed] | %12
w: of- fered|me with- in your ho- ly|Word. Help me,|Lord, when toil and trou- ble|
w: I’ve no|cause for wor- ry or for|fear. He whose|heart is kind be- yond all|
w: he whose|name is Coun- se- lor and|Power. The pro-|tec- tion of his child and|
 [Ed]2 [Ec]4 [DF][EG] | [DA]3 [DA] [FA][Dc][EB][FA] | [EG]6 [B,G][B,F] | [B,E]3 [B,E] | %16
w: meet- ing, e'er to|take, as from a fa- ther’s|hand, one by|one, the|
w: mea- sure gives un-|to each day what he deems|best— lo- ving-|ly, its|
w: trea- sure is a|charge that on him- self he|laid: “As your|days, your|
 [B,E][B,E][B,F][B,G] | [CG]2 [CF]4 [CF][CE] | [B,D]3 [B,D] (DE)(FD) | [B,E]6 |] %20
w: days, the mo- ments|fleet- ing, till I|reach the pro- * mised _|land.|
w: part of pain and|plea- sure, min- gling|toil with peace _ and _|rest.|
w: strength shall be in|mea- sure,” this the|pledge to me _ he _|made.|
V:2
 x2 | x8 | x8 | x4 | x4 | x8 | x8 | x6 | x2 | x8 | x8 | x8 | x8 | x8 | x8 | x4 | x4 | x8 | %18
 x4 B,2 B,2 | x6 |] %20
V:3
 [E,B,][E,A,] | [E,G,]3 [E,G,] [E,G,][E,G,][E,A,][E,B,] | [A,,B,]2 [A,,A,]4 [A,,A,][=A,,F,] | %3
 [B,,F,]3 [B,,F,] | [B,,F,][B,,G,][B,,A,][B,,F,] | [E,G,]6 [E,B,][E,A,] | %6
 [E,G,]3 [E,G,] [E,G,][E,G,][E,A,][E,B,] | [A,,B,]2 [A,,A,]4 | [A,,A,][=A,,F,] | %9
 [B,,F,]3 [B,,F,] [B,,F,][B,,G,][B,,A,][B,,F,] | [E,G,]6 [E,B,]>[F,B,] | %11
 [G,B,]3 [G,B,] [G,B,][G,B,][G,,B,][G,,B,] | [A,,B,]2 [A,,A,]4 B,B, | %13
 [F,B,]3 [F,B,] [D,B,][B,,F,][C,B,][D,B,] | [E,B,]6 [E,B,][E,A,] | [E,G,]3 [E,G,] | %16
 [E,G,][E,G,][E,A,][E,B,] | [A,,B,]2 [A,,A,]4 [A,,A,][=A,,F,] | [B,,F,]3 [B,,F,] F,G, [B,,A,]2 | %19
 [E,G,]6 |] %20
V:4
 x2 | x8 | x8 | x4 | x4 | x8 | x8 | x6 | x2 | x8 | x8 | x8 | x4 x2 A,G, | x8 | x8 | x4 | x4 | x8 | %18
 x4 B,,2 x2 | x6 |] %20

